X:1
T:Чарльстон.
T:Чарльстон.
T:(NEGRO DANCE.)
T:Муз. обр. ПОЛЬ ЭРЛИХ н ВЛАДИМИР ШТАММ. 
T:Эах. 1102
T:Эах. 1102
T:Эах. 1102
C:Муз. обр. ПОДЬ ЭРЛИХ н ВЛАДИМНР ШТАММ.
Z:Эах. 1102
%%score { ( 1 2 ) | ( 3 4 ) }
L:1/8
Q:1/4=180
M:2/2
K:C
V:1 treble nm="Piano" snm="Pno."
V:2 treble 
V:3 bass 
V:4 bass 
V:1
"^Charleston tempo."!mf! [cec']2 z x c'4 | %1
 [ce_bc']2 !^![ebd']2- [ebd']>_d'"^Ефиму Миzайлзецеу ДОРФМАН." [eb=d']2 | %2
 [cac']2 z !^![cac']- [ca-c']2 (3a_ag | [cd^f]2 !^![dfc'd']2- [dfc'd']>d' [dfc'd']2 | %4
 [Acea]2 z x a4 | [Adfa]>[Gdfg][Adfa]>!^![Bfgb]- [Bfgb][Adfa] [Gdfg]2 | c'8- | %7
 c'2 z2 !^![E^Gde]2 z2 ||!p!"^(Saxophone)"{ef^f^g} aa- ae !^!a4 | %9
"^(Sax.)"{a^ab} c'c'- c'!courtesy!=a !^!c'4 |{bc'^c'} d'e' d'e' .d' !^![de^gc']2 b | %11
{e^f^g} a4{^CD^D} !^!E2 z2 |{ef^f^g} aa- ae a4 |{a^ab} c'c'- c'=a c'4 | %14
 z [AB^d^fb][ABdfa][ABd^g] [ABdf][ABdg][ABdfa]!^![Begb]- | b4 !^![Bf=gb] z [df]z/[^ce]/ | %16
 [df]z/a/ fz/d/ Bz/A/ Gz/^F/ | [EA]z/B/ [EA]2 z ecz/d/ | ez/f/ ez/d/ Bz/^G/ Fz/E/ | %19
 cz/d/ [EAc]2 z2 B^c | d2 [Bd]B !^![G_Be]2 Bc | d [Bd]2 !^![G_Be]- [GBe]2 Bc | %22
 [^Fcd]2 [DFc]2 [GB]2 [FA]2 | [B,FB]!^![Cc]- [Cc]!^![^C^c] [Dd]2 !^![B,FG]2 | %24
!mf! [G,CEG]2 z !^![G,CEG]- [G,CEG][^F,^F] [G,CEG]2 | %25
 [^G,DE^G]2 z !^![G,DEG]- [G,DEG][=G,=G] [^G,DE^G]2 | %26
 [A,^CGA]2 z !^![A,CGA]- [A,CGA][^G,^G] [A,C=GA]2 | [EGBe]2 z !^![^CGA]- [CGA]^G [C=GA]2 | %28
 [=CD^FA]2 z !^![Fce]- [Fce]^d [Fce]2 | [B,FA]2 z [FBe]- [FBe]^d [FBe]2 | [CEA]2 z c- cA c2 | %31
 [FGB]d [FGB][FA]- [FA]2 [B,F^G]2 | [G,CEG]2 z !^![G,CEG]- [G,CEG][^F,^F] [G,CEG]2 | %33
 [^G,DE^G]2 z !^![G,DEG]- [G,DEG][=G,=G] [^G,DE^G]2 | %34
 [A,^CGA]2 z !^![A,CGA]- [A,CGA][^G,^G] [A,C=GA]2 | [EAce]2 z [EAce]- [EAce][Dd] [Cc]2 | %36
 z [gb][gb][gb]- [gb][fa] [eg]2 | z [^fa][fa][fa]- [fa][eg] [^df]2 | %38
 z [d^gb][dgb]!^![dgb]- [dgb][d^fa] [deg]2 | z [Bfgb][Bfgb]!^![Bfgb]- [Bfgb][Aa] [Gfg]2 | %40
!f! [Gceg]2 z !^![Gceg] [Gceg][^F^f] [Gceg]2 | [^Gde^g][=G=g][^Gde^g][Ee] z [^F^f]z[Gdeg] | %42
 [!courtesy!=GA^c!courtesy!=ga]2 z !^![GAcga]z[^G^g]z[=GA^c=ga] | %43
 [ee'][^d^d'][ee']!^![Aa] z [ee']z[^c^c'] | [A=cd^f]2 z [efe']z[^d^d']z[efe'] | %45
 [A=d=fa][egbe'] [^d^d']!^![egbe'] z [^d^d'][egbe'][Bfgb] | [cea][cec'] a!^!c' z [Aa][cc'][Aa] | %47
 [Bfgb][dd'][Bfgb]!^![Adfa]- [Adfa]2 [Gdfg]2 | [cec']2 z x c'4 | %49
 [ce_bc']2 !^![ebd']2- [ebd']>_d' [eb=d']2 | [cac']2 z !^![cac']- [ca-c']2 (3a_ag | %51
 [cd^f]2 !^![dfc'd']2- [dfc'd']>d' [dfc'd']2 | [Acea]2 z x a4 | %53
 [Adfa]>[Gdfg][Adfa]>!^![Bfgb]- [Bfgb][Adfa] [Gdfg]2 | c'8- | c'2 z2!sfz! !>![cegc']2 z2 |] %56
V:2
 x3 !^![cec']- [ce]2 [cea]2 | x8 | x8 | x8 | x3 !^![Acea]- [Ace]2 [_Beg]2 | x8 | %6
 [ce]2 [EG]!^![DF]- [DF][EG] !^![DF]2 | [CE]2 x6 || x8 | x8 | x8 | x8 | x8 | x8 | x8 | %15
 [Beg][Be^g] [Beg]2 x4 | x8 | x8 | x8 | x8 | x8 | x8 | x4 ^C=C- C2 | x8 | x8 | x8 | x8 | x8 | x8 | %29
 x8 | x8 | x8 | x8 | x8 | x8 | x8 | B8 | A8 | x8 | x8 | x8 | x8 | x8 | x8 | x8 | x8 | x8 | x8 | %48
 x3 !^![cec']- [ce]2 [cea]2 | x8 | x8 | x8 | x3 !^![Acea]- [Ace]2 [_Beg]2 | x8 | %54
 [ce]2 [EG]!^![DF]- [DF][EG] !^![DF]2 | [CE]2 x6 |] %56
V:3
 [A,,A,]2 [E,A,C]2 [E,,E,]2 [E,A,C]2 | [G,,G,]2 [_B,CE]2 [C,,C,]2 [B,CE]2 | %2
 [F,,F,]2 [A,CF]2 z ([^F,,^F,] [G,,G,]2) | [_A,,_A,]2 [D,^F,C]2 [D,,D,]2 [D,F,C]2 | %4
 [G,,,G,,]2 [G,CE]4 [^C,,^C,]2 | [D,,D,]2 [G,B,F]2 [G,,,G,,]2 [G,B,F]2 | z2 G,_A,- !^!A,G, !^!A,2 | %7
 G,2 z2 !arpeggio!!^![E,,B,,^G,]2 z2 || [A,,A,]2"^con tristezza" [E,A,C]2 [E,,E,]2 [E,A,C]2 | %9
 [F,,F,]2 [E,A,C]2 [E,,E,]2 [E,A,C]2 | [C,B,]2 [E,^G,D]2 [E,,E,]2 [E,G,D]2 | %11
 [A,,A,]2 [E,A,C]2 [E,,E,]2 [E,^G,D]2 | [A,,A,]2 [E,A,C]2 [E,,E,]2 [E,A,C]2 | %13
 [F,,F,]2 [E,A,C]2 [E,,E,]2 C2 |"_(Sax.)"{^G,,A,,^A,,} !^!B,,2 [A,B,^D]2 [B,,,B,,]2 [A,B,D]2 | %15
 [^G,,^G,]4 [=G,,=G,] z"^grazioso" z2 | [D,,D,]2 [G,B,F]2 [G,,,G,,]2 [G,B,F]2 | %17
 [C,,C,]2 [G,CE]2 [G,,,G,,]2 [G,CE]2 | [B,,,B,,]2 [E,^G,D]2 [E,,,E,,]2 [E,G,D]2 | %19
 [A,,A,]2 [E,A,C]2 [A,,A,][G,,G,][^F,,^F,][E,,E,] | [D,,D,]2 [D,G,B,]2 !^![^C,G,_B,]2 z2 | %21
 [D,,D,]2 [D,G,B,]2 [^C,G,_B,]2 z2 | [D,,D,]2 [D,^F,C]2 [A,,,A,,]2 [D,,D,]2 | %23
 [G,,G,]!^![A,,A,]- [A,,A,]!^![^A,,^A,] [B,,B,]2 [G,,,G,,]2 | %24
 [C,,C,]2"^bien rhytme" z !>![C,,C,]- [C,,C,]2 [C,,C,]2 | %25
 [B,,,B,,]2 z !>![B,,,B,,]- [B,,,B,,]2 [B,,,B,,]2 | [A,,,A,,]2 z [A,,,A,,]- [A,,,A,,]2 [A,,,A,,]2 | %27
 [A,,E,]2 z [A,,E,]- [A,,E,]2 [A,,E,]2 | !arpeggio![D,,A,,^F,]4 z2 !arpeggio![D,,A,,F,]2 | %29
 !arpeggio![G,,F,]4 z2 !arpeggio![G,,F,]2 | [C,,C,]2 [E,G,C]2 [_E,,_E,]3 z | %31
 [D,,D,]4 z2 [G,,,G,,]2 | [C,,C,]2 z2 z2 [C,,C,]2 | [B,,,B,,]2 z2 z2 [B,,,B,,]2 | %34
 [A,,,A,,]2 z2 z2 [A,,,A,,]2 | [^F,,^F,]2 z2 z2 [E,^F,A,]2 | %36
{^G,,A,,^A,,} !^!B,,2 [G,B,E]2 [B,,,B,,]2 [G,B,E]2 | %37
{^G,,^A,,} !^!B,,2 [A,B,^D]2 [B,,,B,,]2 [A,B,D]2 |{^C,D,^D,} !^!E,2 [E,^G,D]2 [E,,E,]2 [E,G,D]2 | %39
{E,,F,,^F,,} !^!G,,2 [G,B,F]2 [G,,,G,,]2 [G,B,F]2 | %40
"^grandioso" [C,,C,]2 [G,CE]2 [G,,,G,,]2 [G,CE]2 | [B,,,B,,]2 [E,^G,D]2 [E,,,E,,]2 [E,G,D]2 | %42
 [A,,,A,,]2 [A,^CG]2 [E,,,E,,]2 [A,CG]2 | [A,,,A,,]2 [A,^CG]2 [E,,,E,,]2 [A,CG]2 | %44
 [D,,D,]2 [D,^F,C]2 [A,,,A,,]2 [D,F,C]2 | [D,,D,]2 [G,B,F]2 [G,,,G,,]2 [G,B,F]2 | %46
 [C,,C,]2 [G,CE]2 [_E,,_E,]2 z2 | [D,,D,]2 [F,G,B,]2 [G,,,G,,]2 [F,G,B,]2 | %48
 [A,,A,]2 [E,A,C]2 [E,,E,]2 [E,A,C]2 | [G,,G,]2 [_B,CE]2 [C,,C,]2 [B,CE]2 | %50
 [F,,F,]2 [A,CF]2 z ([^F,,^F,] [G,,G,]2) | [_A,,_A,]2 [D,^F,C]2 [D,,D,]2 [D,F,C]2 | %52
 [G,,,G,,]2 [G,CE]4 [^C,,^C,]2 | [D,,D,]2 [G,B,F]2 [G,,,G,,]2 [G,B,F]2 | z2 G,_A,- !^!A,G, !^!A,2 | %55
 G,2 z2!8vb(! !>![C,,,C,,]2!8vb)!"^Fine." z2 |] %56
V:4
 x8 | x8 | x8 | x8 | x8 | x8 | [C,,C,]8- | [C,,C,]4 x4 || x8 | x8 | x8 | x8 | x8 | x8 | x8 | x8 | %16
 x8 | x8 | x8 | x8 | x8 | x8 | x8 | x8 | x8 | x8 | x8 | x8 | x8 | x8 | x8 | x8 | x8 | x8 | x8 | %35
 x8 | x8 | x8 | x8 | x8 | x8 | x8 | x8 | x8 | x8 | x8 | x8 | x8 | x8 | x8 | x8 | x8 | x8 | x8 | %54
 [C,,C,]8- | [C,,C,]8!8vb(!!8vb)! |] %56

